website/media/images/svg/arrow-left.svg

<svg width="8" height="13" viewBox="0 0 8 13" fill="none" xmlns="http://www.w3.org/2000/svg">
<path opacity="0.2" d="M3.73934 6.34629L7.69848 2.38698C7.89965 2.18601 8 1.94022 8 1.64963C8 1.35906 7.89962 1.11338 7.69848 0.912442L7.08759 0.301351C6.88673 0.100469 6.64091 0 6.35043 0C6.05995 0 5.81424 0.100469 5.61307 0.301351L0.301494 5.60486C0.100498 5.80582 0 6.05159 0 6.34221C0 6.63283 0.100469 6.8784 0.301494 7.07945L5.61305 12.383C5.81421 12.5839 6.05989 12.6844 6.3504 12.6844C6.64091 12.6844 6.8867 12.5839 7.08756 12.383L7.69845 11.772C7.89962 11.5711 7.99997 11.3267 7.99997 11.0387C7.99997 10.751 7.89959 10.5038 7.69845 10.2975L3.73934 6.34629Z" fill="#222222"/>
</svg>

<svg width="8" height="13" viewBox="0 0 8 13" fill="none" xmlns="http://www.w3.org/2000/svg"><path opacity=".2" d="M3.74 6.346l3.958-3.959A1 1 0 008 1.65c0-.29-.1-.537-.302-.738l-.61-.61A1.002 1.002 0 006.35 0c-.29 0-.536.1-.737.301L.301 5.605A1.003 1.003 0 000 6.342c0 .29.1.536.301.737l5.312 5.304c.201.2.447.301.737.301s.537-.1.738-.301l.61-.611A.997.997 0 008 11.039c0-.288-.1-.535-.302-.742L3.74 6.347z" fill="#222"/></svg>
